z_dist/img/icons/crypto/secret-SCRT.svg

<svg width="64" height="64" viewBox="0 0 64 64" fill="none" xmlns="http://www.w3.org/2000/svg">
<rect y="0.000244141" width="64" height="64" rx="4" fill="#EDF0F4"/>
<circle cx="32" cy="32.0002" r="24" fill="#1B1B1B" stroke="white" stroke-width="4"/>
<path fill-rule="evenodd" clip-rule="evenodd" d="M39.2659 25.1356C39.5937 25.4607 40.1263 25.4201 40.3721 25.0543C40.6179 24.7698 40.577 24.3228 40.2902 24.0789C37.5862 21.5186 35.169 20.2181 31.154 20.4213C26.9341 20.6245 23.2059 22.8191 23.4517 27.4521C23.6565 31.5568 27.6716 33.0605 31.1949 34.4016C33.8989 35.4176 36.2752 36.3117 36.3981 38.2218C36.521 40.3351 34.3496 41.595 32.465 41.7169C28.9006 41.9201 26.8112 40.6603 24.4759 38.425C24.1891 38.1406 23.7385 38.1406 23.4517 38.3844C23.1239 38.6689 23.1239 39.1566 23.4107 39.4817C26.0328 42.0827 28.7368 43.3832 32.6698 43.18C36.6029 42.8955 41.4373 40.7009 41.1915 36.0679C40.9866 32.0445 37.1355 30.5408 33.6531 29.2403C30.7852 28.143 28.1222 27.127 27.9993 24.8105C27.9174 23.1442 29.9249 21.925 31.3588 21.8437C34.8412 21.6812 37.0126 22.9004 39.2659 25.1356ZM39.7157 36.149C39.7157 37.9371 38.7324 39.4815 37.2575 40.3756L37.1756 40.3349C37.7082 39.6034 37.7901 38.6687 37.7901 37.7746C37.7901 35.1329 34.8813 34.1169 31.8086 33.0196C28.4081 31.8004 24.8438 30.5406 24.8438 26.9642C24.8438 25.3386 25.5812 23.591 27.0151 22.7782L27.0561 22.8595C26.6874 23.6317 26.5235 24.4851 26.5235 25.3386C26.5235 28.2647 29.7601 29.4433 33.0377 30.6625C36.3972 31.8817 39.7157 33.1009 39.7157 36.149Z" fill="white"/>
<path fill-rule="evenodd" clip-rule="evenodd" d="M31.8011 51.1999C42.5017 51.1999 51.2011 42.5005 51.2011 31.7999C51.2011 21.0993 42.5017 12.3999 31.8011 12.3999C21.1004 12.3999 12.4011 21.0993 12.4011 31.7999C12.4011 42.5005 21.1004 51.1999 31.8011 51.1999Z" stroke="white" stroke-width="2" stroke-linecap="round"/>
</svg>

<svg width="64" height="64" fill="none" xmlns="http://www.w3.org/2000/svg"><rect width="64" height="64" rx="4" fill="#EDF0F4"/><circle cx="32" cy="32" r="24" fill="#1B1B1B" stroke="#fff" stroke-width="4"/><path fill-rule="evenodd" clip-rule="evenodd" d="M39.266 25.136c.328.325.86.284 1.106-.082a.698.698 0 00-.082-.975c-2.704-2.56-5.121-3.86-9.136-3.658-4.22.204-7.948 2.398-7.702 7.031.204 4.105 4.22 5.608 7.743 6.95 2.704 1.016 5.08 1.91 5.203 3.82.123 2.113-2.048 3.373-3.933 3.495-3.564.203-5.654-1.057-7.99-3.292a.762.762 0 00-1.023-.04c-.328.284-.328.772-.041 1.097 2.622 2.6 5.326 3.901 9.259 3.698 3.933-.285 8.767-2.48 8.521-7.112-.204-4.023-4.056-5.527-7.538-6.828-2.868-1.097-5.53-2.113-5.654-4.43-.082-1.666 1.926-2.885 3.36-2.966 3.482-.163 5.654 1.056 7.907 3.292zm.45 11.013c0 1.788-.984 3.332-2.459 4.227l-.081-.041c.532-.732.614-1.666.614-2.56 0-2.642-2.909-3.658-5.981-4.755-3.4-1.22-6.965-2.48-6.965-6.056 0-1.625.737-3.373 2.171-4.186l.041.082c-.369.772-.533 1.625-.533 2.479 0 2.926 3.237 4.104 6.515 5.324 3.36 1.219 6.678 2.438 6.678 5.486z" fill="#fff"/><path clip-rule="evenodd" d="M31.801 51.2c10.7 0 19.4-8.7 19.4-19.4s-8.7-19.4-19.4-19.4-19.4 8.7-19.4 19.4 8.7 19.4 19.4 19.4z" stroke="#fff" stroke-width="2" stroke-linecap="round"/></svg>
